X:1     %Music
T:Go Down, Moses
B:Alan Lomax, The Penguin Book of American Folk Songs, Penguin, 1964
F:http://www.folkinfo.org/songs
Q:1/2=60    %Tempo
M:4/4     %Meter
L:1/8     %
K:G
 B,2 |G2 G2 F2 F2 |G2 G2 E4 |B,2 B,2 ^D D3 | E4 z2
w:When Is-rael was in E-gypt land, Let my peo-ple go,
 B,2 |G2 G2 F2 F2 |G2 G2 E4 |B,2 B,2 ^D D3 | E8 |
w:Op-pressed so hard they could not stand, Let my peo-ple go.
EE-E6| AA-A6|(B3 A) B3 A | B2 B2 (A/G/(E/E2))| 
w:Go down, * Mo-ses, * Way_ down in E-gypt land,___
(F E3) (E G3) |ED (B,B,4)B, |B, B,3 ^D D3 |E4 |]
w: Tell_ old_ Pha--raoh_ To let my peo-ple go.
